48x48/apps/civilization6.svg

<svg xmlns="http://www.w3.org/2000/svg" width="48" height="48" version="1.1">
 <path style="opacity:0.2" d="M 27.986328,8.9179988 A 4.0004,4.0004 0 0 0 24.308594,11.460968 L 18,26.601592 11.691406,11.460968 A 4.0004,4.0004 0 0 0 7.9394531,8.9472956 4.0004,4.0004 0 0 0 4.3085938,14.539092 l 10.0000002,24 a 4.0004,4.0004 0 0 0 7.382812,0 l 10,-24 A 4.0004,4.0004 0 0 0 27.986328,8.9179988 Z m 11.953125,0.025391 A 4.0004,4.0004 0 0 0 36,13.00003 v 24 a 4.0004,4.0004 0 1 0 8,0 v -24 A 4.0004,4.0004 0 0 0 39.939453,8.9433894 Z"/>
 <path style="fill:none;stroke:#c0562a;stroke-width:8;stroke-linecap:round;stroke-linejoin:round" d="m 8,12 10,24 v 0 0"/>
 <path style="opacity:0.1;fill:#f4f4f7" d="M 7.9394531 7.9472656 A 4.0004 4.0004 0 0 0 4.0136719 12.455078 A 4.0004 4.0004 0 0 1 7.9394531 8.9472656 A 4.0004 4.0004 0 0 1 11.691406 11.460938 L 21.691406 35.460938 A 4.0004 4.0004 0 0 1 22 36.568359 A 4.0004 4.0004 0 0 0 21.691406 34.460938 L 11.691406 10.460938 A 4.0004 4.0004 0 0 0 7.9394531 7.9472656 z"/>
 <path style="fill:none;stroke:#c0562a;stroke-width:8;stroke-linecap:round;stroke-linejoin:round" d="M 40.0004,12 V 36"/>
 <path style="fill:none;stroke:#ea8c46;stroke-width:8;stroke-linecap:round;stroke-linejoin:round" d="M 28,12 18,36"/>
 <path style="opacity:0.1;fill:#f4f4f7" d="M 39.939453 7.9433594 A 4.0004 4.0004 0 0 0 36 12 L 36 13 A 4.0004 4.0004 0 0 1 39.939453 8.9433594 A 4.0004 4.0004 0 0 1 44 13 L 44 12 A 4.0004 4.0004 0 0 0 39.939453 7.9433594 z"/>
 <path style="opacity:0.2;fill:#f4f4f7" d="M 27.941406 7.9472656 A 4.0004 4.0004 0 0 0 24.308594 10.460938 L 14.308594 34.460938 A 4.0004 4.0004 0 0 0 14 36.570312 A 4.0004 4.0004 0 0 1 14.308594 35.460938 L 24.308594 11.460938 A 4.0004 4.0004 0 0 1 27.941406 8.9472656 A 4.0004 4.0004 0 0 1 31.986328 12.453125 A 4.0004 4.0004 0 0 0 27.941406 7.9472656 z"/>
</svg>

<svg xmlns="http://www.w3.org/2000/svg" width="48" height="48"><path style="opacity:.2" d="M27.986 8.918a4 4 0 0 0-3.677 2.543L18 26.601l-6.309-15.14A4 4 0 0 0 7.94 8.947a4 4 0 0 0-3.63 5.592l10 24a4 4 0 0 0 7.382 0l10-24a4 4 0 0 0-3.705-5.621zm11.953.025A4 4 0 0 0 36 13v24a4 4 0 1 0 8 0V13a4 4 0 0 0-4.06-4.057z"/><path style="fill:none;stroke:#c0562a;stroke-width:8;stroke-linecap:round;stroke-linejoin:round" d="m8 12 10 24v0"/><path style="opacity:.1;fill:#f4f4f7" d="M7.94 7.947a4 4 0 0 0-3.926 4.508 4 4 0 0 1 3.925-3.508 4 4 0 0 1 3.752 2.514l10 24A4 4 0 0 1 22 36.568a4 4 0 0 0-.309-2.107l-10-24A4 4 0 0 0 7.94 7.947z"/><path style="fill:none;stroke:#c0562a;stroke-width:8;stroke-linecap:round;stroke-linejoin:round" d="M40 12v24"/><path style="fill:none;stroke:#ea8c46;stroke-width:8;stroke-linecap:round;stroke-linejoin:round" d="M28 12 18 36"/><path style="opacity:.1;fill:#f4f4f7" d="M39.94 7.943A4 4 0 0 0 36 12v1a4 4 0 0 1 3.94-4.057A4 4 0 0 1 44 13v-1a4 4 0 0 0-4.06-4.057z"/><path style="opacity:.2;fill:#f4f4f7" d="M27.941 7.947a4 4 0 0 0-3.632 2.514l-10 24A4 4 0 0 0 14 36.57a4 4 0 0 1 .309-1.11l10-24a4 4 0 0 1 3.632-2.514 4 4 0 0 1 4.045 3.506 4 4 0 0 0-4.045-4.506z"/></svg>
